src/lib/packages/icons/src/assets/line/delivery-cart-arrow-down.svg

<svg width="24" height="24" viewBox="0 0 24 24" fill="none" xmlns="http://www.w3.org/2000/svg">
<path d="M12.914 11.417C12.576 11.178 12.495 10.71 12.733 10.372C12.972 10.034 13.4371 9.95199 13.7791 10.191L14.02 10.361L13.641 8.214C13.569 7.806 13.841 7.417 14.249 7.345C14.658 7.273 15.046 7.546 15.117 7.953L15.499 10.118L15.687 9.85099C15.926 9.51199 16.392 9.43099 16.733 9.66999C17.071 9.90899 17.152 10.377 16.914 10.715L15.687 12.454C15.684 12.458 15.679 12.46 15.676 12.464C15.614 12.548 15.533 12.615 15.44 12.668C15.405 12.688 15.369 12.696 15.332 12.71C15.289 12.727 15.251 12.752 15.204 12.761C15.16 12.769 15.116 12.773 15.073 12.773C15.07 12.773 15.067 12.771 15.063 12.771C14.985 12.77 14.908 12.756 14.833 12.73C14.802 12.72 14.776 12.702 14.747 12.688C14.712 12.671 14.675 12.659 14.642 12.636L12.914 11.417ZM8.834 9.218C8.614 7.973 8.76603 6.99899 9.29603 6.24099C9.82703 5.48199 10.692 5.007 11.937 4.787L15.5711 4.14599C16.8161 3.92599 17.788 4.078 18.548 4.608C19.307 5.139 19.781 6.003 20.001 7.248L20.642 10.882C20.862 12.127 20.71 13.101 20.179 13.86C19.649 14.618 18.785 15.094 17.539 15.313L13.905 15.954C13.549 16.017 13.211 16.049 12.893 16.049C11.02 16.049 9.84599 14.959 9.47499 12.852L8.834 9.218ZM10.311 8.95799L10.952 12.592C11.243 14.238 11.996 14.767 13.645 14.478L17.2791 13.837C18.1121 13.69 18.659 13.416 18.95 13C19.241 12.584 19.3111 11.977 19.1651 11.144L18.5241 7.50999C18.3771 6.67699 18.103 6.13 17.687 5.839C17.412 5.646 17.052 5.55 16.598 5.55C16.368 5.55 16.112 5.57399 15.83 5.62399L12.1961 6.26499C11.3631 6.41199 10.816 6.686 10.525 7.102C10.234 7.517 10.164 8.12499 10.311 8.95799ZM21.738 16.65C21.81 17.058 21.538 17.447 21.13 17.519L10.714 19.352C10.539 20.701 9.39601 21.75 8.00001 21.75C6.48301 21.75 5.25001 20.517 5.25001 19C5.25001 17.76 6.07997 16.721 7.20997 16.379L5.17201 4.77999C5.05301 4.10299 4.40001 3.652 3.71901 3.768L3.12501 3.869C2.72501 3.936 2.329 3.663 2.261 3.255C2.192 2.846 2.46601 2.45899 2.87501 2.38999L3.46498 2.28999C4.94698 2.03099 6.38606 3.02999 6.64906 4.51899L8.72902 16.359C9.51802 16.578 10.165 17.132 10.499 17.866L20.87 16.04C21.279 15.969 21.667 16.242 21.738 16.65ZM9.25001 19C9.25001 18.311 8.68901 17.75 8.00001 17.75C7.31101 17.75 6.75001 18.311 6.75001 19C6.75001 19.689 7.31101 20.25 8.00001 20.25C8.68901 20.25 9.25001 19.689 9.25001 19Z" fill="currentColor"/>
</svg>

<svg xmlns="http://www.w3.org/2000/svg" width="24" height="24" fill="none"><path fill="currentColor" d="M12.914 11.417a.751.751 0 0 1 .865-1.226l.241.17-.379-2.147a.75.75 0 1 1 1.476-.261l.382 2.165.188-.267a.75.75 0 1 1 1.227.864l-1.227 1.739-.011.01a.75.75 0 0 1-.236.204c-.035.02-.071.028-.108.042-.043.017-.081.042-.128.051a.734.734 0 0 1-.131.012l-.01-.002a.728.728 0 0 1-.23-.041c-.031-.01-.057-.028-.086-.042-.035-.017-.072-.029-.105-.052l-1.728-1.219Zm-4.08-2.199c-.22-1.245-.068-2.219.462-2.977.531-.759 1.396-1.234 2.641-1.454l3.634-.641c1.245-.22 2.217-.068 2.977.462.759.531 1.233 1.395 1.453 2.64l.641 3.634c.22 1.245.068 2.219-.463 2.978-.53.758-1.394 1.234-2.64 1.453l-3.634.641a5.825 5.825 0 0 1-1.012.095c-1.873 0-3.047-1.09-3.418-3.197l-.641-3.634Zm1.477-.26.641 3.634c.291 1.646 1.044 2.175 2.693 1.886l3.634-.641c.833-.147 1.38-.421 1.671-.837.291-.416.361-1.023.215-1.856l-.64-3.634c-.148-.833-.422-1.38-.838-1.671-.275-.193-.635-.289-1.089-.289-.23 0-.486.024-.768.074l-3.634.641c-.833.147-1.38.421-1.671.837-.291.415-.361 1.023-.214 1.856Zm11.427 7.692a.75.75 0 0 1-.608.869l-10.416 1.833A2.744 2.744 0 0 1 8 21.75 2.752 2.752 0 0 1 5.25 19c0-1.24.83-2.279 1.96-2.621L5.172 4.78a1.258 1.258 0 0 0-1.453-1.012l-.594.101a.75.75 0 1 1-.25-1.479l.59-.1a2.763 2.763 0 0 1 3.184 2.229l2.08 11.84a2.75 2.75 0 0 1 1.77 1.507L20.87 16.04a.75.75 0 0 1 .868.61ZM9.25 19c0-.689-.561-1.25-1.25-1.25s-1.25.561-1.25 1.25.561 1.25 1.25 1.25 1.25-.561 1.25-1.25Z"/></svg>
